svg/color/ethv.svg

<?xml version="1.0" encoding="UTF-8" ?>
<!DOCTYPE svg PUBLIC "-//W3C//DTD SVG 1.1//EN" "http://www.w3.org/Graphics/SVG/1.1/DTD/svg11.dtd">
<svg width="249pt" height="250pt" viewBox="0 0 249 250" version="1.1" xmlns="http://www.w3.org/2000/svg">
<g id="#ffffffff">
<path fill="#ffffff" opacity="1.00" d=" M 0.00 0.00 L 115.60 0.00 C 87.22 1.53 59.45 13.21 38.82 32.81 C 15.61 54.29 1.63 85.05 0.00 116.58 L 0.00 0.00 Z" />
<path fill="#ffffff" opacity="1.00" d=" M 127.44 0.00 L 249.00 0.00 L 249.00 250.00 L 0.00 250.00 L 0.00 128.41 C 1.35 153.08 9.94 177.37 24.99 197.01 C 38.53 215.08 57.27 229.01 78.21 237.37 C 81.34 239.55 84.71 241.46 88.44 242.41 C 98.72 245.26 109.25 247.72 119.98 247.65 C 127.90 247.66 135.89 247.88 143.72 246.48 C 161.70 243.50 179.32 236.94 194.04 226.05 C 206.81 217.03 218.05 205.71 226.63 192.62 C 240.83 172.51 247.44 147.49 246.67 123.01 C 246.85 110.84 245.09 98.58 240.87 87.14 C 237.07 76.92 233.38 66.09 225.64 58.08 C 220.39 49.96 214.53 42.18 207.55 35.45 C 186.49 14.21 157.30 1.42 127.44 0.00 Z" />
<path fill="#ffffff" opacity="1.00" d=" M 57.24 77.98 C 65.96 77.75 74.67 77.88 83.39 77.89 C 83.50 86.68 83.47 95.46 83.41 104.25 C 74.67 104.27 65.94 104.31 57.21 104.22 C 57.26 95.47 57.21 86.72 57.24 77.98 Z" />
<path fill="#ffffff" opacity="1.00" d=" M 95.32 78.06 C 104.08 77.75 112.87 77.72 121.63 78.08 C 121.56 86.77 121.55 95.46 121.63 104.15 C 112.86 104.35 104.08 104.30 95.31 104.18 C 95.37 95.47 95.35 86.76 95.32 78.06 Z" />
<path fill="#ffffff" opacity="1.00" d=" M 133.38 78.08 C 142.14 77.72 150.92 77.76 159.68 78.04 C 159.66 86.76 159.63 95.48 159.70 104.19 C 150.92 104.30 142.14 104.35 133.37 104.16 C 133.45 95.47 133.44 86.77 133.38 78.08 Z" />
<path fill="#ffffff" opacity="1.00" d=" M 171.62 77.89 C 180.34 77.87 189.07 77.76 197.79 77.97 C 197.82 86.72 197.78 95.47 197.82 104.22 C 189.08 104.30 180.34 104.27 171.60 104.24 C 171.53 95.46 171.51 86.68 171.62 77.89 Z" />
<path fill="#ffffff" opacity="1.00" d=" M 57.23 116.23 C 65.95 116.24 74.66 116.30 83.38 116.20 C 83.50 125.51 83.49 134.83 83.39 144.15 C 74.67 144.22 65.96 144.24 57.25 144.13 C 57.22 134.83 57.24 125.53 57.23 116.23 Z" />
<path fill="#ffffff" opacity="1.00" d=" M 133.37 116.25 C 142.15 116.24 150.92 116.25 159.70 116.25 C 159.63 125.53 159.66 134.80 159.67 144.08 C 150.92 144.25 142.15 144.32 133.39 144.03 C 133.43 134.77 133.45 125.51 133.37 116.25 Z" />
<path fill="#ffffff" opacity="1.00" d=" M 57.24 155.95 C 65.96 155.72 74.67 155.84 83.39 155.87 C 83.50 164.67 83.47 173.48 83.41 182.28 C 74.68 182.31 65.94 182.35 57.21 182.25 C 57.26 173.49 57.21 164.72 57.24 155.95 Z" />
<path fill="#ffffff" opacity="1.00" d=" M 95.33 156.02 C 104.08 155.73 112.87 155.67 121.62 156.07 C 121.56 164.78 121.55 173.50 121.63 182.21 C 112.86 182.38 104.08 182.34 95.30 182.23 C 95.38 173.49 95.35 164.76 95.33 156.02 Z" />
<path fill="#ffffff" opacity="1.00" d=" M 133.38 156.07 C 142.14 155.67 150.92 155.74 159.68 156.02 C 159.66 164.75 159.63 173.49 159.70 182.23 C 150.93 182.34 142.15 182.39 133.37 182.20 C 133.45 173.49 133.44 164.78 133.38 156.07 Z" />
</g>
<g id="#000000ff">
<path fill="#000000" opacity="1.00" d=" M 115.60 0.00 L 127.44 0.00 C 157.30 1.42 186.49 14.21 207.55 35.45 C 214.53 42.18 220.39 49.96 225.64 58.08 C 228.93 64.37 232.35 70.60 234.91 77.22 C 245.81 104.52 246.39 135.72 236.59 163.42 C 227.81 188.60 210.54 210.72 188.21 225.31 C 165.91 240.07 138.57 247.06 111.93 244.71 C 100.36 244.10 89.18 240.85 78.21 237.37 C 57.27 229.01 38.53 215.08 24.99 197.01 C 9.94 177.37 1.35 153.08 0.00 128.41 L 0.00 116.58 C 1.63 85.05 15.61 54.29 38.82 32.81 C 59.45 13.21 87.22 1.53 115.60 0.00 M 54.79 75.66 C 54.79 85.98 54.66 96.30 54.87 106.62 C 65.17 106.56 75.46 106.56 85.76 106.62 C 85.83 96.31 85.70 85.99 85.84 75.68 C 75.50 75.54 65.14 75.57 54.79 75.66 M 92.87 75.66 C 92.82 85.94 92.82 96.22 92.88 106.50 C 103.21 106.63 113.55 106.65 123.88 106.49 C 123.82 96.21 123.77 85.94 123.91 75.66 C 113.57 75.56 103.22 75.56 92.87 75.66 M 131.08 75.66 C 131.26 85.98 131.10 96.30 131.19 106.62 C 141.44 106.56 151.69 106.56 161.94 106.62 C 162.37 96.31 162.07 85.98 162.12 75.65 C 151.78 75.57 141.43 75.55 131.08 75.66 M 169.15 75.67 C 169.30 85.99 169.17 96.31 169.24 106.63 C 179.55 106.55 189.85 106.57 200.16 106.61 C 200.36 96.30 200.24 85.98 200.23 75.66 C 189.87 75.56 179.51 75.54 169.15 75.67 M 54.79 113.74 C 54.76 124.62 54.75 135.50 54.80 146.39 C 65.13 146.46 75.47 146.50 85.81 146.36 C 85.77 135.49 85.74 124.61 85.83 113.74 C 75.49 113.65 65.14 113.65 54.79 113.74 M 131.10 113.73 C 131.20 124.61 131.19 135.49 131.13 146.37 C 141.46 146.48 151.79 146.48 162.11 146.38 C 162.17 135.49 162.16 124.61 162.12 113.73 C 151.78 113.66 141.44 113.65 131.10 113.73 M 54.79 153.65 C 54.79 163.99 54.68 174.32 54.85 184.66 C 65.16 184.60 75.46 184.61 85.76 184.65 C 85.83 174.33 85.69 164.00 85.86 153.67 C 75.50 153.54 65.14 153.57 54.79 153.65 M 92.86 153.66 C 92.84 163.95 92.81 174.24 92.88 184.53 C 103.21 184.68 113.55 184.70 123.88 184.52 C 123.82 174.23 123.77 163.94 123.92 153.66 C 113.57 153.56 103.21 153.55 92.86 153.66 M 131.08 153.66 C 131.26 163.99 131.11 174.32 131.18 184.66 C 141.44 184.60 151.70 184.61 161.96 184.65 C 162.35 174.32 162.08 163.98 162.12 153.65 C 151.77 153.56 141.42 153.55 131.08 153.66 Z" />
</g>
<g id="#bec2c1ff">
<path fill="#bec2c1" opacity="1.00" d=" M 225.64 58.08 C 233.38 66.09 237.07 76.92 240.87 87.14 C 245.09 98.58 246.85 110.84 246.67 123.01 C 247.44 147.49 240.83 172.51 226.63 192.62 C 218.05 205.71 206.81 217.03 194.04 226.05 C 179.32 236.94 161.70 243.50 143.72 246.48 C 135.89 247.88 127.90 247.66 119.98 247.65 C 109.25 247.72 98.72 245.26 88.44 242.41 C 84.71 241.46 81.34 239.55 78.21 237.37 C 89.18 240.85 100.36 244.10 111.93 244.71 C 138.57 247.06 165.91 240.07 188.21 225.31 C 210.54 210.72 227.81 188.60 236.59 163.42 C 246.39 135.72 245.81 104.52 234.91 77.22 C 232.35 70.60 228.93 64.37 225.64 58.08 Z" />
</g>
<g id="#0ed99cff">
<path fill="#0ed99c" opacity="1.00" d=" M 54.79 75.66 C 65.14 75.57 75.50 75.54 85.84 75.68 C 85.70 85.99 85.83 96.31 85.76 106.62 C 75.46 106.56 65.17 106.56 54.87 106.62 C 54.66 96.30 54.79 85.98 54.79 75.66 M 57.24 77.98 C 57.21 86.72 57.26 95.47 57.21 104.22 C 65.94 104.31 74.67 104.27 83.41 104.25 C 83.47 95.46 83.50 86.68 83.39 77.89 C 74.67 77.88 65.96 77.75 57.24 77.98 Z" />
<path fill="#0ed99c" opacity="1.00" d=" M 92.87 75.66 C 103.22 75.56 113.57 75.56 123.91 75.66 C 123.77 85.94 123.82 96.21 123.88 106.49 C 113.55 106.65 103.21 106.63 92.88 106.50 C 92.82 96.22 92.82 85.94 92.87 75.66 M 95.32 78.06 C 95.35 86.76 95.37 95.47 95.31 104.18 C 104.08 104.30 112.86 104.35 121.63 104.15 C 121.55 95.46 121.56 86.77 121.63 78.08 C 112.87 77.72 104.08 77.75 95.32 78.06 Z" />
<path fill="#0ed99c" opacity="1.00" d=" M 131.08 75.66 C 141.43 75.55 151.78 75.57 162.12 75.65 C 162.07 85.98 162.37 96.31 161.94 106.62 C 151.69 106.56 141.44 106.56 131.19 106.62 C 131.10 96.30 131.26 85.98 131.08 75.66 M 133.38 78.08 C 133.44 86.77 133.45 95.47 133.37 104.16 C 142.14 104.35 150.92 104.30 159.70 104.19 C 159.63 95.48 159.66 86.76 159.68 78.04 C 150.92 77.76 142.14 77.72 133.38 78.08 Z" />
<path fill="#0ed99c" opacity="1.00" d=" M 169.15 75.67 C 179.51 75.54 189.87 75.56 200.23 75.66 C 200.24 85.98 200.36 96.30 200.16 106.61 C 189.85 106.57 179.55 106.55 169.24 106.63 C 169.17 96.31 169.30 85.99 169.15 75.67 M 171.62 77.89 C 171.51 86.68 171.53 95.46 171.60 104.24 C 180.34 104.27 189.08 104.30 197.82 104.22 C 197.78 95.47 197.82 86.72 197.79 77.97 C 189.07 77.76 180.34 77.87 171.62 77.89 Z" />
<path fill="#0ed99c" opacity="1.00" d=" M 54.79 113.74 C 65.14 113.65 75.49 113.65 85.83 113.74 C 85.74 124.61 85.77 135.49 85.81 146.36 C 75.47 146.50 65.13 146.46 54.80 146.39 C 54.75 135.50 54.76 124.62 54.79 113.74 M 57.23 116.23 C 57.24 125.53 57.22 134.83 57.25 144.13 C 65.96 144.24 74.67 144.22 83.39 144.15 C 83.49 134.83 83.50 125.51 83.38 116.20 C 74.66 116.30 65.95 116.24 57.23 116.23 Z" />
<path fill="#0ed99c" opacity="1.00" d=" M 131.10 113.73 C 141.44 113.65 151.78 113.66 162.12 113.73 C 162.16 124.61 162.17 135.49 162.11 146.38 C 151.79 146.48 141.46 146.48 131.13 146.37 C 131.19 135.49 131.20 124.61 131.10 113.73 M 133.37 116.25 C 133.45 125.51 133.43 134.77 133.39 144.03 C 142.15 144.32 150.92 144.25 159.67 144.08 C 159.66 134.80 159.63 125.53 159.70 116.25 C 150.92 116.25 142.15 116.24 133.37 116.25 Z" />
<path fill="#0ed99c" opacity="1.00" d=" M 54.79 153.65 C 65.14 153.57 75.50 153.54 85.86 153.67 C 85.69 164.00 85.83 174.33 85.76 184.65 C 75.46 184.61 65.16 184.60 54.85 184.66 C 54.68 174.32 54.79 163.99 54.79 153.65 M 57.24 155.95 C 57.21 164.72 57.26 173.49 57.21 182.25 C 65.94 182.35 74.68 182.31 83.41 182.28 C 83.47 173.48 83.50 164.67 83.39 155.87 C 74.67 155.84 65.96 155.72 57.24 155.95 Z" />
<path fill="#0ed99c" opacity="1.00" d=" M 92.86 153.66 C 103.21 153.55 113.57 153.56 123.92 153.66 C 123.77 163.94 123.82 174.23 123.88 184.52 C 113.55 184.70 103.21 184.68 92.88 184.53 C 92.81 174.24 92.84 163.95 92.86 153.66 M 95.33 156.02 C 95.35 164.76 95.38 173.49 95.30 182.23 C 104.08 182.34 112.86 182.38 121.63 182.21 C 121.55 173.50 121.56 164.78 121.62 156.07 C 112.87 155.67 104.08 155.73 95.33 156.02 Z" />
<path fill="#0ed99c" opacity="1.00" d=" M 131.08 153.66 C 141.42 153.55 151.77 153.56 162.12 153.65 C 162.08 163.98 162.35 174.32 161.96 184.65 C 151.70 184.61 141.44 184.60 131.18 184.66 C 131.11 174.32 131.26 163.99 131.08 153.66 M 133.38 156.07 C 133.44 164.78 133.45 173.49 133.37 182.20 C 142.15 182.39 150.93 182.34 159.70 182.23 C 159.63 173.49 159.66 164.75 159.68 156.02 C 150.92 155.74 142.14 155.67 133.38 156.07 Z" />
</g>
</svg>

<?xml version="1.0" encoding="utf-8"?>
<!-- Generator: Adobe Illustrator 26.0.3, SVG Export Plug-In . SVG Version: 6.00 Build 0)  -->
<svg version="1.1" id="Layer_1" xmlns="http://www.w3.org/2000/svg" xmlns:xlink="http://www.w3.org/1999/xlink" x="0px" y="0px"
	 viewBox="0 0 249 250" style="enable-background:new 0 0 249 250;" xml:space="preserve">
<style type="text/css">
	.st0{fill:#FFFFFF;}
	.st1{fill:#BEC2C1;}
	.st2{fill:#0ED99C;}
</style>
<g id="_x23_ffffffff">
	<path class="st0" d="M57.2,78c8.7-0.2,17.4-0.1,26.1-0.1c0.1,8.8,0.1,17.6,0,26.4c-8.7,0-17.5,0.1-26.2,0
		C57.3,95.5,57.2,86.7,57.2,78z"/>
	<path class="st0" d="M95.3,78.1c8.8-0.3,17.6-0.3,26.3,0c-0.1,8.7-0.1,17.4,0,26.1c-8.8,0.2-17.5,0.2-26.3,0
		C95.4,95.5,95.3,86.8,95.3,78.1z"/>
	<path class="st0" d="M133.4,78.1c8.8-0.4,17.5-0.3,26.3,0c0,8.7,0,17.4,0,26.2c-8.8,0.1-17.6,0.2-26.3,0
		C133.4,95.5,133.4,86.8,133.4,78.1z"/>
	<path class="st0" d="M171.6,77.9c8.7,0,17.5-0.1,26.2,0.1c0,8.8,0,17.5,0,26.2c-8.7,0.1-17.5,0-26.2,0
		C171.5,95.5,171.5,86.7,171.6,77.9z"/>
	<path class="st0" d="M57.2,116.2c8.7,0,17.4,0.1,26.1,0c0.1,9.3,0.1,18.6,0,27.9c-8.7,0.1-17.4,0.1-26.1,0
		C57.2,134.8,57.2,125.5,57.2,116.2z"/>
	<path class="st0" d="M133.4,116.2c8.8,0,17.6,0,26.3,0c-0.1,9.3,0,18.6,0,27.8c-8.8,0.2-17.5,0.2-26.3-0.1
		C133.4,134.8,133.4,125.5,133.4,116.2z"/>
	<path class="st0" d="M57.2,155.9c8.7-0.2,17.4-0.1,26.1-0.1c0.1,8.8,0.1,17.6,0,26.4c-8.7,0-17.5,0.1-26.2,0
		C57.3,173.5,57.2,164.7,57.2,155.9z"/>
	<path class="st0" d="M95.3,156c8.8-0.3,17.5-0.4,26.3,0.1c-0.1,8.7-0.1,17.4,0,26.1c-8.8,0.2-17.5,0.1-26.3,0
		C95.4,173.5,95.3,164.8,95.3,156z"/>
	<path class="st0" d="M133.4,156.1c8.8-0.4,17.5-0.3,26.3-0.1c0,8.7,0,17.5,0,26.2c-8.8,0.1-17.6,0.2-26.3,0
		C133.4,173.5,133.4,164.8,133.4,156.1z"/>
</g>
<g id="_x23_000000ff">
	<path d="M115.6,0h11.8c29.9,1.4,59.1,14.2,80.1,35.5c7,6.7,12.8,14.5,18.1,22.6c3.3,6.3,6.7,12.5,9.3,19.1
		c10.9,27.3,11.5,58.5,1.7,86.2c-8.8,25.2-26.1,47.3-48.4,61.9c-22.3,14.8-49.6,21.8-76.3,19.4c-11.6-0.6-22.8-3.9-33.7-7.3
		C57.3,229,38.5,215.1,25,197C9.9,177.4,1.4,153.1,0,128.4v-11.8c1.6-31.5,15.6-62.3,38.8-83.8C59.5,13.2,87.2,1.5,115.6,0
		 M54.8,75.7c0,10.3-0.1,20.6,0.1,31c10.3-0.1,20.6-0.1,30.9,0c0.1-10.3-0.1-20.6,0.1-30.9C75.5,75.5,65.1,75.6,54.8,75.7
		 M92.9,75.7c-0.1,10.3-0.1,20.6,0,30.8c10.3,0.1,20.7,0.2,31,0c-0.1-10.3-0.1-20.5,0-30.8C113.6,75.6,103.2,75.6,92.9,75.7
		 M131.1,75.7c0.2,10.3,0,20.6,0.1,31c10.2-0.1,20.5-0.1,30.8,0c0.4-10.3,0.1-20.6,0.2-31C151.8,75.6,141.4,75.6,131.1,75.7
		 M169.1,75.7c0.2,10.3,0,20.6,0.1,31c10.3-0.1,20.6-0.1,30.9,0c0.2-10.3,0.1-20.6,0.1-30.9C189.9,75.6,179.5,75.5,169.1,75.7
		 M54.8,113.7c0,10.9,0,21.8,0,32.7c10.3,0.1,20.7,0.1,31,0c0-10.9-0.1-21.8,0-32.6C75.5,113.7,65.1,113.7,54.8,113.7 M131.1,113.7
		c0.1,10.9,0.1,21.8,0,32.6c10.3,0.1,20.7,0.1,31,0c0.1-10.9,0.1-21.8,0-32.7C151.8,113.7,141.4,113.7,131.1,113.7 M54.8,153.6
		c0,10.3-0.1,20.7,0.1,31c10.3-0.1,20.6-0.1,30.9,0c0.1-10.3-0.1-20.6,0.1-31C75.5,153.5,65.1,153.6,54.8,153.6 M92.9,153.7
		c0,10.3-0.1,20.6,0,30.9c10.3,0.1,20.7,0.2,31,0c-0.1-10.3-0.1-20.6,0-30.9C113.6,153.6,103.2,153.6,92.9,153.7 M131.1,153.7
		c0.2,10.3,0,20.7,0.1,31c10.3-0.1,20.5-0.1,30.8,0c0.4-10.3,0.1-20.7,0.2-31C151.8,153.6,141.4,153.6,131.1,153.7z"/>
</g>
<g id="_x23_bec2c1ff">
	<path class="st1" d="M225.6,58.1c7.7,8,11.4,18.8,15.2,29.1c4.2,11.4,6,23.7,5.8,35.9c0.8,24.5-5.8,49.5-20,69.6
		c-8.6,13.1-19.8,24.4-32.6,33.4c-14.7,10.9-32.3,17.4-50.3,20.4c-7.8,1.4-15.8,1.2-23.7,1.2c-10.7,0.1-21.3-2.4-31.5-5.2
		c-3.7-0.9-7.1-2.9-10.2-5c11,3.5,22.2,6.7,33.7,7.3c26.6,2.3,54-4.6,76.3-19.4c22.3-14.6,39.6-36.7,48.4-61.9
		c9.8-27.7,9.2-58.9-1.7-86.2C232.4,70.6,228.9,64.4,225.6,58.1z"/>
</g>
<g id="_x23_0ed99cff">
	<path class="st2" d="M54.8,75.7c10.3-0.1,20.7-0.1,31,0c-0.1,10.3,0,20.6-0.1,30.9c-10.3-0.1-20.6-0.1-30.9,0
		C54.7,96.3,54.8,86,54.8,75.7 M57.2,78c0,8.7,0,17.5,0,26.2c8.7,0.1,17.5,0,26.2,0c0.1-8.8,0.1-17.6,0-26.4
		C74.7,77.9,66,77.8,57.2,78z"/>
	<path class="st2" d="M92.9,75.7c10.3-0.1,20.7-0.1,31,0c-0.1,10.3-0.1,20.5,0,30.8c-10.3,0.2-20.7,0.1-31,0
		C92.8,96.2,92.8,85.9,92.9,75.7 M95.3,78.1c0,8.7,0.1,17.4,0,26.1c8.8,0.1,17.6,0.2,26.3,0c-0.1-8.7-0.1-17.4,0-26.1
		C112.9,77.7,104.1,77.8,95.3,78.1z"/>
	<path class="st2" d="M131.1,75.7c10.3-0.1,20.7-0.1,31,0c0,10.3,0.2,20.7-0.2,31c-10.2-0.1-20.5-0.1-30.8,0
		C131.1,96.3,131.3,86,131.1,75.7 M133.4,78.1c0.1,8.7,0.1,17.4,0,26.1c8.8,0.2,17.6,0.1,26.3,0c-0.1-8.7,0-17.4,0-26.2
		C150.9,77.8,142.1,77.7,133.4,78.1z"/>
	<path class="st2" d="M169.1,75.7c10.4-0.1,20.7-0.1,31.1,0c0,10.3,0.1,20.6-0.1,30.9c-10.3,0-20.6-0.1-30.9,0
		C169.2,96.3,169.3,86,169.1,75.7 M171.6,77.9c-0.1,8.8-0.1,17.6,0,26.3c8.7,0,17.5,0.1,26.2,0c0-8.8,0-17.5,0-26.2
		C189.1,77.8,180.3,77.9,171.6,77.9z"/>
	<path class="st2" d="M54.8,113.7c10.3-0.1,20.7-0.1,31,0c-0.1,10.9-0.1,21.8,0,32.6c-10.3,0.1-20.7,0.1-31,0
		C54.8,135.5,54.8,124.6,54.8,113.7 M57.2,116.2c0,9.3,0,18.6,0,27.9c8.7,0.1,17.4,0.1,26.1,0c0.1-9.3,0.1-18.6,0-27.9
		C74.7,116.3,65.9,116.2,57.2,116.2z"/>
	<path class="st2" d="M131.1,113.7c10.3-0.1,20.7-0.1,31,0c0,10.9,0.1,21.8,0,32.7c-10.3,0.1-20.6,0.1-31,0
		C131.2,135.5,131.2,124.6,131.1,113.7 M133.4,116.2c0.1,9.3,0.1,18.5,0,27.8c8.8,0.3,17.5,0.2,26.3,0.1c0-9.3,0-18.6,0-27.8
		C150.9,116.2,142.1,116.2,133.4,116.2z"/>
	<path class="st2" d="M54.8,153.6c10.3-0.1,20.7-0.1,31.1,0c-0.2,10.3,0,20.7-0.1,31c-10.3,0-20.6,0-30.9,0
		C54.7,174.3,54.8,164,54.8,153.6 M57.2,155.9c0,8.8,0,17.5,0,26.3c8.7,0.1,17.5,0.1,26.2,0c0.1-8.8,0.1-17.6,0-26.4
		C74.7,155.8,66,155.7,57.2,155.9z"/>
	<path class="st2" d="M92.9,153.7c10.3-0.1,20.7-0.1,31.1,0c-0.2,10.3-0.1,20.6,0,30.9c-10.3,0.2-20.7,0.2-31,0
		C92.8,174.2,92.8,163.9,92.9,153.7 M95.3,156c0,8.7,0,17.5,0,26.2c8.8,0.1,17.6,0.2,26.3,0c-0.1-8.7-0.1-17.4,0-26.1
		C112.9,155.7,104.1,155.7,95.3,156z"/>
	<path class="st2" d="M131.1,153.7c10.3-0.1,20.7-0.1,31,0c0,10.3,0.2,20.7-0.2,31c-10.3,0-20.5,0-30.8,0
		C131.1,174.3,131.3,164,131.1,153.7 M133.4,156.1c0.1,8.7,0.1,17.4,0,26.1c8.8,0.2,17.6,0.1,26.3,0c-0.1-8.7,0-17.5,0-26.2
		C150.9,155.7,142.1,155.7,133.4,156.1z"/>
</g>
</svg>
